X:925
T:Shave the Donkey
C:Traditional English
S:Colin Hume's website,  colinhume.com  - chords can also be printed below the stave.
Q:1/2=88
M:2/2
R:Reel
L:1/8
%%MIDI ratio 3 1
K:G
P:A
|: "G"d2B2 "D7"d>cB>A | "G"G2g2 "C"e2g2 | "G"d2B2 "D7"d>cB>A | "G"G2B2 G4 :|
P:B
|: "D7"A3c "G"B2d2 | "D7"A3c "G"B2d2 | "D7"A3c "G"B2 d>e |1 "D7"d>cB>A "G"B2G2 :|2 d>c B>A G4 |]

